X:1
T:Title
%%score { ( 1 4 ) | ( 2 3 ) }
L:1/8
M:4/4
K:G
V:1 treble nm="Grand Piano"
V:4 treble 
V:2 treble 
V:3 treble 
V:1
 z4 z2[Q:1/4=104] GA | B2 B2 B2 AG | d2 d2 d2 ed | B2 B2 [GB]2 [FA][EG] |[M:3/4] [FA]6 | %5
[M:1/4] GA |[M:4/4] B2 B2 B2 AG | d2 d2 d2 ed | [DGB]2 [DGB]2 [DGB]2 [CFA]2 | [B,G]6 z2 | %10
 [GB]4 d4 | [Ge]4 d4 | e2 d>B [FA]2 z G, | [Fd]6 z2 | [GB]4 d4 | [Ge]4 d4 | %16
 [Ge]2 [DGd]>[EGc] [DGB]2 [CFA]2 |[M:3/4] [B,DG]6 |] %18
V:2
 z4 z2 z [CF] | [G,DG]2 [G,DG]2 [G,DG]2 [G,D]-[G,B,D] | [G,B,D]2 [A,CF]2 [B,DG]2 G-[B,DG] | %3
 [G,DG]2 [G,DG]2[K:bass] [E,E]2 [E,B,]2 |[M:3/4] [D,D]6 |[M:1/4][K:treble] G,-[G,CF] | %6
[M:4/4] [G,DG]2 [G,DG]2 [G,DG]2 [G,D]-[G,B,D] | [G,B,D]2 [G,B,G]2 [G,B,G]2 [G,G]-[G,B,G] | %8
 D,2 D,2 D,2 D,2 | G,6 z2 | z4 G4[K:bass] | z4[K:treble] G4 | %12
 [CG]2 [B,DG]>[G,DG][K:bass] [D,C]2 .[E,B,]2 | [D,A,]6 z2 | z4 G4[K:bass] | z4[K:treble] G4 | %16
 [C,C]2 B,,>C, D,2 D,2 |[M:3/4] G,6 |] %18
V:3
 z4 z2 G,2 | z4 z2 .C2 | z4 z2 .C2 | x4[K:bass] x4 |[M:3/4] x6 |[M:1/4][K:treble] B, z | %6
[M:4/4] z4 z2 .C2 | z4 z2 .C2 | x8 | x8 | G,2 G,2 [G,B,]2[K:bass] G,2 | %11
 [C,C]2 E,2[K:treble] [G,B,]2 G,2 | x4[K:bass] x4 | x8 | [G,D]2 G,2 [G,B,]2[K:bass] G,2 | %15
 [C,C]2 E,2[K:treble] [G,B,]2 G,2 | x8 |[M:3/4] x6 |] %18
V:4
 x8 | x8 | x8 | x8 |[M:3/4] x6 |[M:1/4] x2 |[M:4/4] x8 | x8 | x8 | x8 | D2 D2 z2 B,2 | %11
 z2 C2 z2 B,2 | z4 z2 G2 | x8 | z2 D2 z2 B,2 | z2 C2 z2 B,2 | x8 |[M:3/4] x6 |] %18

